X:015
%%topmargin 3cm
T:Reaping the Rye
B:The Nelson Music Collection
N:Newton F. Tolman & K. Dep. Gilbert
Z:Transcribed by Ralph Palmer
R:Slip Jig
L:1/8
M:9/8
K:EAeo
B>cB B2 A GFE | G>AG B2 g f2 e | B>cB B2 A GFE | G2 A Be^d e2 :|
B>cB g2 g f2 e | B>cB g2 g f2 e | B>cB g2 g fga | g>fe Be^d e3 |
B>cB g2 g fed | B>cB gag fga | bag gfe fga | gab Be^d e3 |]

